X: 5030
T: Brian O Linn
R: waltz
M: 3/4
K: Gmajor
G A G E D D|E<G G G2 G|
w:Brian O Linn had no breeches to wear He
G A c d d d|e d B A2 A/A/|
w:got an old sheepskin to make him a pair With the
G<A c d d d|e<d e B2 A/A/|
w:fleshy side out and the woolly side in, "They'll be
G A G (E D) D|E<G G G3||
w:pleasant and cool,"_ says Brian O Linn.

